images/install/cloud/gcp.svg

<svg width="142" height="80" viewBox="0 0 142 80" fill="none" xmlns="http://www.w3.org/2000/svg">
<path d="M80.1684 43.6013L73.8975 54.5014H57.4752C56.0104 54.5014 54.6581 53.7179 53.9291 52.4476L40.6443 29.2842C39.9219 28.0237 39.9219 26.4769 40.6443 25.2169L45.6994 16.4048L51.9401 27.2504L61.348 43.6013H80.1684Z" fill="#F8BB16"/>
<path d="M100.875 29.2846L87.5907 52.448C86.8617 53.7183 85.5094 54.5019 84.0451 54.5019H73.8975L80.1683 43.6017L89.5802 27.2507L80.1683 10.9002H92.6627L100.875 25.2173C101.598 26.4774 101.598 28.0241 100.875 29.2846Z" fill="#EA4334"/>
<path d="M92.6628 10.9003H61.3479L51.94 27.2507L45.6994 16.4052L53.929 2.05393C54.658 0.78322 56.0103 0.000108719 57.4751 0.000108719H84.0452C85.5093 0.000108719 86.8618 0.78322 87.5908 2.05393L92.6628 10.9003Z" fill="#0074BC"/>
<path d="M80.1683 10.9002L89.5771 27.2507L80.1683 43.6017H61.3515L51.9401 27.2507L61.348 10.9002H80.1683Z" fill="#E2E3E4"/>
<path d="M70.76 19.0753C75.2753 19.0753 78.9355 22.7359 78.9355 27.2508C78.9355 31.766 75.2753 35.4262 70.76 35.4262C66.2451 35.4262 62.5849 31.766 62.5849 27.2508C62.5849 22.7359 66.2451 19.0753 70.76 19.0753Z" fill="white"/>
<g opacity="0.199997">
<g opacity="0.199997">
<path opacity="0.199997" d="M53.9291 2.39448C54.6581 1.12377 56.0104 0.340202 57.4751 0.340202H84.0452C85.5095 0.340202 86.8618 1.12377 87.5908 2.39448L92.4689 10.9003H92.6629L87.5908 2.05396C86.8618 0.783246 85.5095 0.000133514 84.0452 0.000133514H57.4751C56.0104 0.000133514 54.6581 0.783246 53.9291 2.05396L45.6995 16.4053L45.798 16.5753L53.9291 2.39448Z" fill="white"/>
</g>
</g>
<g opacity="0.199997">
<g opacity="0.199997">
<path opacity="0.199997" d="M51.9401 27.2508L61.348 10.9003H92.6629L92.4689 10.5597H61.348L51.9401 26.9102" fill="#2C3079"/>
</g>
</g>
<g opacity="0.199997">
<g opacity="0.199997">
<path opacity="0.199997" d="M40.6443 25.5579L45.6995 16.7453L51.9401 27.5918L61.348 43.9423H79.9708L80.1684 43.6017H61.348L51.9401 27.2508L45.6995 16.4052L40.6443 25.2174C40.2527 25.8984 40.0822 26.6616 40.1128 27.4213C40.14 26.7774 40.314 26.1373 40.6443 25.5579Z" fill="white"/>
</g>
</g>
<g opacity="0.199997">
<g opacity="0.199997">
<path opacity="0.199997" d="M74.0948 54.1614H57.4751C56.0105 54.1614 54.6581 53.3781 53.9291 52.1075L40.6442 28.9441C40.3139 28.3647 40.1399 27.7245 40.1129 27.0802C40.0822 27.8404 40.2527 28.6032 40.6442 29.2847L53.9291 52.4481C54.6581 53.7183 56.0105 54.5019 57.4751 54.5019H73.8977L74.0948 54.1614Z" fill="#BE3B26"/>
</g>
</g>
<g opacity="0.199997">
<g opacity="0.199997">
<path opacity="0.199997" d="M89.7712 27.2508L80.3659 10.9003H80.1683L89.5803 27.2508H89.7712Z" fill="#3F2723"/>
</g>
<g opacity="0.199997">
<path opacity="0.199997" d="M100.876 28.9441L87.5907 52.1075C86.8617 53.3782 85.5094 54.1613 84.0451 54.1613H74.0946L73.8975 54.5019H84.0451C85.5094 54.5019 86.8617 53.7183 87.5907 52.448L100.876 29.2846C101.268 28.6031 101.438 27.8404 101.407 27.0803C101.38 27.7245 101.206 28.3647 100.876 28.9441Z" fill="#3F2723"/>
</g>
</g>
<g opacity="0.199997">
<g opacity="0.199997">
<path opacity="0.199997" d="M92.6629 11.2408L100.876 25.5579C101.206 26.1372 101.38 26.7775 101.408 27.4212C101.438 26.6616 101.268 25.8984 100.876 25.2174L92.6629 10.9003H80.1683L80.366 11.2408" fill="white"/>
</g>
<g opacity="0.199997">
<path opacity="0.199997" d="M80.1684 43.9423L89.7713 27.2508H89.5805L80.1684 43.6017L73.8976 54.5019H74.0947L80.1684 43.9423Z" fill="white"/>
</g>
</g>
<path d="M50.4545 71.1108C50.4545 68.0117 52.7969 65.6693 55.8666 65.6693C57.4378 65.6693 58.7618 66.2949 59.6928 67.3716L58.7618 68.2737C58.0345 67.3716 57.0595 66.9498 55.8666 66.9498C53.6698 66.9498 51.8219 68.5499 51.8219 71.1108C51.8219 73.6712 53.6698 75.2717 55.8666 75.2717C57.1764 75.2717 58.2818 74.6604 59.0677 73.7587L59.9983 74.6897C59.0819 75.7806 57.6124 76.5518 55.8666 76.5518C52.7969 76.5518 50.4545 74.2098 50.4545 71.1108Z" fill="#767576"/>
<path d="M61.0456 65.902H62.3841V76.3191H61.0456V65.902Z" fill="#767576"/>
<path d="M69.3818 72.7544C69.3818 71.125 68.2471 70.1793 67.0541 70.1793C65.861 70.1793 64.7263 71.125 64.7263 72.7544C64.7263 74.3843 65.861 75.3299 67.0541 75.3299C68.2471 75.3299 69.3818 74.3843 69.3818 72.7544ZM70.7204 72.7544C70.7204 74.9223 69.1927 76.5517 67.0541 76.5517C64.9154 76.5517 63.3877 74.9223 63.3877 72.7544C63.3877 70.5869 64.9154 68.9575 67.0541 68.9575C69.1927 68.9575 70.7204 70.5869 70.7204 72.7544Z" fill="#767576"/>
<path d="M76.7724 76.3191V75.3299H76.7142C76.3217 75.9848 75.4338 76.5518 74.4592 76.5518C72.6261 76.5518 71.7385 75.3153 71.7385 73.5549V69.19H73.0771V73.3364C73.0771 74.8206 73.8191 75.3299 74.8376 75.3299C76.0012 75.3299 76.7142 74.2097 76.7142 73.1184V69.19H78.0529V76.3191H76.7724Z" fill="#767576"/>
<path d="M85.0068 72.7544C85.0068 71.125 83.9301 70.1793 82.7371 70.1793C81.5437 70.1793 80.4674 71.1543 80.4674 72.7544C80.4674 74.3549 81.5437 75.3299 82.7371 75.3299C83.9301 75.3299 85.0068 74.3842 85.0068 72.7544ZM79.1288 72.7544C79.1288 70.5722 80.7143 68.9575 82.5187 68.9575C83.6536 68.9575 84.541 69.5249 84.9482 70.1793H85.0068L84.9482 69.1901V65.902H86.2873V76.3191H85.0068V75.3299H84.9482C84.541 75.9848 83.6536 76.5517 82.5187 76.5517C80.7143 76.5517 79.1288 74.937 79.1288 72.7544Z" fill="#767576"/>
<path d="M93.517 70.8195C94.71 70.8195 95.3791 69.8303 95.3791 69.001C95.3791 68.1716 94.71 67.1824 93.517 67.1824H91.2767V70.8195H93.517ZM89.9377 76.3192V65.9019H93.4877C95.2193 65.9019 96.747 67.1824 96.747 69.001C96.747 70.8195 95.2193 72.1 93.4877 72.1H91.2767V76.3192H89.9377Z" fill="#767576"/>
<path d="M97.6922 65.902H99.0304V76.3191H97.6922V65.902Z" fill="#767576"/>
<path d="M105.243 73.2494C105.243 73.2494 104.676 72.7836 103.541 72.7836C102.13 72.7836 101.577 73.5403 101.577 74.1946C101.577 74.9512 102.362 75.3299 103.061 75.3299C104.123 75.3299 105.243 74.413 105.243 73.2494ZM100.18 74.1658C100.18 72.551 101.635 71.6782 103.308 71.6782C104.268 71.6782 104.967 71.9543 105.243 72.1146V71.9108C105.243 70.8341 104.385 70.1792 103.381 70.1792C102.639 70.1792 101.926 70.5433 101.679 71.2124L100.457 70.6886C100.704 70.0336 101.562 68.9574 103.351 68.9574C105.098 68.9574 106.523 70.0048 106.523 72.0124V76.3191H105.243V75.3299H105.185C104.792 75.9262 104.064 76.5518 102.843 76.5518C101.388 76.5518 100.18 75.65 100.18 74.1658Z" fill="#767576"/>
<path d="M108.458 74.1511V70.412H107.207V69.1901H108.458V67.0074H109.797V69.1901H111.542V70.412H109.797V74.0494C109.797 74.8496 110.131 75.2132 110.757 75.2132C111.004 75.2132 111.179 75.1843 111.368 75.0968L111.833 76.2463C111.528 76.3773 111.208 76.4355 110.757 76.4355C109.258 76.4355 108.458 75.6061 108.458 74.1511Z" fill="#767576"/>
<path d="M117.158 66.0329L116.692 67.1824C116.518 67.095 116.329 67.0661 116.081 67.0661C115.412 67.0661 114.888 67.4585 114.888 68.2879V69.19H116.751V70.4119H114.888V76.3191H113.55V70.4119H112.211V69.19H113.55V68.2444C113.55 66.7894 114.583 65.8438 116.081 65.8438C116.532 65.8438 116.852 65.902 117.158 66.0329Z" fill="#767576"/>
<path d="M123.108 72.7544C123.108 71.125 121.973 70.1793 120.78 70.1793C119.587 70.1793 118.452 71.125 118.452 72.7544C118.452 74.3843 119.587 75.3299 120.78 75.3299C121.973 75.3299 123.108 74.3843 123.108 72.7544ZM124.447 72.7544C124.447 74.9223 122.919 76.5517 120.78 76.5517C118.642 76.5517 117.114 74.9223 117.114 72.7544C117.114 70.5869 118.642 68.9575 120.78 68.9575C122.919 68.9575 124.447 70.5869 124.447 72.7544Z" fill="#767576"/>
<path d="M125.523 76.3191V69.1901H126.803V70.3543H126.861C127.152 69.5391 128.185 69.0156 128.927 69.0156C129.364 69.0156 129.655 69.0738 129.931 69.1901L129.422 70.4413C129.233 70.3685 129 70.3396 128.709 70.3396C127.792 70.3396 126.861 71.1108 126.861 72.4201V76.3191H125.523Z" fill="#767576"/>
<path d="M130.658 69.1901H131.938V70.1792H131.997C132.404 69.4956 133.35 68.9574 134.194 68.9574C135.343 68.9574 136.085 69.4809 136.449 70.3248C136.958 69.5248 137.831 68.9574 138.937 68.9574C140.682 68.9574 141.483 70.1939 141.483 71.9543V76.3191H140.144V72.1581C140.144 70.6739 139.576 70.1792 138.558 70.1792C137.467 70.1792 136.739 71.2853 136.739 72.3761V76.3191H135.401V72.1581C135.401 70.6739 134.834 70.1792 133.815 70.1792C132.724 70.1792 131.997 71.2853 131.997 72.3761V76.3191H130.658V69.1901Z" fill="#767576"/>
<path d="M0 70.5867C0 67.2987 2.76431 64.6216 6.05247 64.6216C7.87113 64.6216 9.16605 65.3345 10.1408 66.2656L8.99135 67.415C8.29303 66.7604 7.34739 66.2511 6.05247 66.2511C3.65187 66.2511 1.77502 68.1862 1.77502 70.5867C1.77502 72.9873 3.65187 74.9222 6.05247 74.9222C7.60914 74.9222 8.49671 74.2967 9.0641 73.7292C9.52976 73.2638 9.83516 72.5945 9.95166 71.6779H6.05247V70.0485H11.5374C11.5956 70.3394 11.6247 70.6885 11.6247 71.0669C11.6247 72.2891 11.2901 73.8021 10.2134 74.8788C9.16605 75.9698 7.82737 76.5517 6.05247 76.5517C2.76431 76.5517 0 73.8748 0 70.5867Z" fill="#767576"/>
<path d="M16.0575 75.0387C14.8935 75.0387 13.8896 74.0786 13.8896 72.7108C13.8896 71.3287 14.8935 70.383 16.0575 70.383C17.2213 70.383 18.2252 71.3287 18.2252 72.7108C18.2252 74.0786 17.2213 75.0387 16.0575 75.0387ZM16.0575 68.8699C13.9333 68.8699 12.2019 70.485 12.2019 72.7108C12.2019 74.9222 13.9333 76.5518 16.0575 76.5518C18.1816 76.5518 19.9129 74.9222 19.9129 72.7108C19.9129 70.485 18.1816 68.8699 16.0575 68.8699Z" fill="#767576"/>
<path d="M24.4682 75.0387C23.3043 75.0387 22.3003 74.0786 22.3003 72.7108C22.3003 71.3287 23.3043 70.383 24.4682 70.383C25.632 70.383 26.6359 71.3287 26.6359 72.7108C26.6359 74.0786 25.632 75.0387 24.4682 75.0387ZM24.4682 68.8699C22.344 68.8699 20.6126 70.485 20.6126 72.7108C20.6126 74.9222 22.344 76.5518 24.4682 76.5518C26.5922 76.5518 28.3237 74.9222 28.3237 72.7108C28.3237 70.485 26.5922 68.8699 24.4682 68.8699Z" fill="#767576"/>
<path d="M32.857 75.0388C31.6931 75.0388 30.7182 74.064 30.7182 72.7255C30.7182 71.3725 31.6931 70.3831 32.857 70.3831C34.0063 70.3831 34.9084 71.3725 34.9084 72.7255C34.9084 74.064 34.0063 75.0388 32.857 75.0388ZM34.7919 69.1027V69.7284H34.7338C34.3556 69.2774 33.628 68.8699 32.7115 68.8699C30.791 68.8699 29.0305 70.5576 29.0305 72.7255C29.0305 74.8788 30.791 76.5518 32.7115 76.5518C33.628 76.5518 34.3556 76.1444 34.7338 75.6789H34.7919V76.2319C34.7919 77.7012 34.0063 78.4869 32.7406 78.4869C31.7076 78.4869 31.0674 77.745 30.8055 77.1194L29.336 77.7303C29.7579 78.7488 30.8783 80 32.7406 80C34.7193 80 36.3923 78.836 36.3923 75.999V69.1027H34.7919Z" fill="#767576"/>
<path d="M39.244 76.319H37.5562V65.0291H39.244V76.319Z" fill="#767576"/>
<path d="M43.7396 70.3539C44.4089 70.3539 44.9763 70.6885 45.1654 71.1686L41.7319 72.5945C41.6881 71.1104 42.8812 70.3539 43.7396 70.3539ZM43.8705 75.0388C43.0121 75.0388 42.4011 74.6459 42.0083 73.8749L47.1441 71.7507L46.9695 71.3141C46.6495 70.4559 45.6746 68.8699 43.6814 68.8699C41.7027 68.8699 40.0587 70.4268 40.0587 72.7108C40.0587 74.8642 41.6881 76.5518 43.8705 76.5518C45.631 76.5518 46.6495 75.4753 47.0714 74.8496L45.7619 73.9766C45.3254 74.6168 44.729 75.0388 43.8705 75.0388Z" fill="#767576"/>
</svg>

<svg xmlns="http://www.w3.org/2000/svg" fill="none" viewBox="0 0 142 80"><defs/><path fill="#F8BB16" d="M80.168 43.601l-6.27 10.9H57.474a4.088 4.088 0 01-3.546-2.053L40.644 29.284a4.088 4.088 0 010-4.067l5.055-8.812L51.94 27.25l9.408 16.351h18.82z"/><path fill="#EA4334" d="M100.875 29.285L87.591 52.448a4.088 4.088 0 01-3.546 2.054H73.897l6.271-10.9L89.58 27.25 80.168 10.9h12.495l8.212 14.316a4.085 4.085 0 010 4.068z"/><path fill="#0074BC" d="M92.663 10.9H61.348L51.94 27.25 45.7 16.406l8.229-14.351A4.087 4.087 0 0157.475 0h26.57c1.464 0 2.817.783 3.546 2.054l5.072 8.846z"/><path fill="#E2E3E4" d="M80.168 10.9l9.41 16.35-9.41 16.352H61.351l-9.41-16.351 9.407-16.35h18.82z"/><path fill="#fff" d="M70.76 19.075a8.176 8.176 0 110 16.352 8.176 8.176 0 010-16.352z"/><path fill="#fff" d="M53.93 2.394A4.088 4.088 0 0157.474.34h26.57c1.465 0 2.817.784 3.546 2.054l4.878 8.506h.194L87.59 2.054A4.087 4.087 0 0084.045 0h-26.57a4.087 4.087 0 00-3.546 2.054L45.7 16.405l.099.17 8.131-14.18z" opacity=".2"/><path fill="#2C3079" d="M51.94 27.25l9.408-16.35h31.315l-.194-.34H61.348L51.94 26.91" opacity=".2"/><path fill="#fff" d="M40.644 25.558l5.056-8.813 6.24 10.847 9.408 16.35h18.623l.197-.34h-18.82L51.94 27.25 45.7 16.405l-5.056 8.812a4.075 4.075 0 00-.531 2.204 4.106 4.106 0 01.531-1.863z" opacity=".2"/><path fill="#BE3B26" d="M74.095 54.161h-16.62a4.088 4.088 0 01-3.546-2.053L40.644 28.944a4.104 4.104 0 01-.531-1.864c-.03.76.14 1.523.531 2.205L53.93 52.448a4.089 4.089 0 003.546 2.054h16.423l.197-.34z" opacity=".2"/><g opacity=".2"><path fill="#3F2723" d="M89.771 27.25L80.366 10.9h-.198l9.412 16.35h.191zM100.876 28.944L87.591 52.108a4.087 4.087 0 01-3.546 2.053h-9.95l-.198.34h10.148a4.088 4.088 0 003.546-2.053l13.285-23.163a4.069 4.069 0 00.531-2.205 4.107 4.107 0 01-.531 1.864z" opacity=".2"/></g><g opacity=".2"><path fill="#fff" d="M92.663 11.24l8.213 14.318c.33.58.504 1.22.532 1.863.03-.76-.14-1.523-.532-2.204L92.663 10.9H80.168l.198.34M80.168 43.942l9.603-16.691h-.19L80.168 43.6l-6.27 10.9h.197l6.073-10.559z" opacity=".2"/></g><path fill="#767576" d="M50.455 71.11c0-3.098 2.342-5.44 5.412-5.44 1.57 0 2.895.625 3.826 1.702l-.931.902c-.727-.902-1.703-1.324-2.895-1.324-2.197 0-4.045 1.6-4.045 4.16 0 2.561 1.848 4.162 4.045 4.162 1.31 0 2.415-.612 3.2-1.513l.931.93c-.916 1.092-2.386 1.863-4.131 1.863-3.07 0-5.412-2.342-5.412-5.441zM61.046 65.902h1.338v10.417h-1.338V65.902zM69.382 72.754c0-1.629-1.135-2.575-2.328-2.575-1.193 0-2.328.946-2.328 2.575 0 1.63 1.135 2.576 2.328 2.576 1.193 0 2.328-.946 2.328-2.576zm1.338 0c0 2.168-1.527 3.798-3.666 3.798-2.139 0-3.666-1.63-3.666-3.798 0-2.167 1.527-3.797 3.666-3.797 2.139 0 3.666 1.63 3.666 3.797zM76.772 76.32v-.99h-.058c-.392.655-1.28 1.222-2.255 1.222-1.833 0-2.72-1.237-2.72-2.997V69.19h1.338v4.146c0 1.485.742 1.994 1.76 1.994 1.164 0 1.877-1.12 1.877-2.212V69.19h1.339v7.13h-1.28zM85.007 72.754c0-1.629-1.077-2.575-2.27-2.575s-2.27.975-2.27 2.575 1.077 2.576 2.27 2.576 2.27-.946 2.27-2.576zm-5.878 0c0-2.182 1.585-3.797 3.39-3.797 1.135 0 2.022.568 2.43 1.222h.058l-.059-.989v-3.288h1.34v10.417h-1.281v-.99h-.059c-.407.656-1.294 1.223-2.43 1.223-1.804 0-3.39-1.615-3.39-3.798zM93.517 70.82c1.193 0 1.862-.99 1.862-1.819 0-.83-.669-1.819-1.862-1.819h-2.24v3.638h2.24zm-3.58 5.5V65.901h3.55c1.732 0 3.26 1.28 3.26 3.099 0 1.819-1.528 3.099-3.26 3.099h-2.21v4.22h-1.34zM97.692 65.902h1.338v10.417h-1.338V65.902zM105.243 73.25s-.567-.466-1.702-.466c-1.411 0-1.964.756-1.964 1.41 0 .757.785 1.136 1.484 1.136 1.062 0 2.182-.917 2.182-2.08zm-5.063.916c0-1.615 1.455-2.488 3.128-2.488.96 0 1.659.276 1.935.437v-.204c0-1.077-.858-1.732-1.862-1.732-.742 0-1.455.364-1.702 1.033l-1.222-.523c.247-.655 1.105-1.732 2.894-1.732 1.747 0 3.172 1.048 3.172 3.055v4.307h-1.28v-.99h-.058c-.393.597-1.121 1.223-2.342 1.223-1.455 0-2.663-.902-2.663-2.386zM108.458 74.151v-3.739h-1.251V69.19h1.251v-2.183h1.339v2.183h1.745v1.222h-1.745v3.637c0 .8.334 1.164.96 1.164.247 0 .422-.029.611-.116l.465 1.15c-.305.13-.625.189-1.076.189-1.499 0-2.299-.83-2.299-2.285zM117.158 66.033l-.466 1.15c-.174-.088-.363-.117-.611-.117-.669 0-1.193.392-1.193 1.222v.902h1.863v1.222h-1.863v5.907h-1.338v-5.907h-1.339V69.19h1.339v-.946c0-1.455 1.033-2.4 2.531-2.4.451 0 .771.058 1.077.189zM123.108 72.754c0-1.629-1.135-2.575-2.328-2.575-1.193 0-2.328.946-2.328 2.575 0 1.63 1.135 2.576 2.328 2.576 1.193 0 2.328-.946 2.328-2.576zm1.339 0c0 2.168-1.528 3.798-3.667 3.798-2.138 0-3.666-1.63-3.666-3.798 0-2.167 1.528-3.797 3.666-3.797 2.139 0 3.667 1.63 3.667 3.797zM125.523 76.32v-7.13h1.28v1.164h.058c.291-.815 1.324-1.338 2.066-1.338.437 0 .728.058 1.004.174l-.509 1.251c-.189-.073-.422-.101-.713-.101-.917 0-1.848.77-1.848 2.08v3.9h-1.338zM130.658 69.19h1.28v.99h.059c.407-.684 1.353-1.223 2.197-1.223 1.149 0 1.891.524 2.255 1.368a2.9 2.9 0 012.488-1.368c1.745 0 2.546 1.237 2.546 2.997v4.365h-1.339v-4.16c0-1.485-.568-1.98-1.586-1.98-1.091 0-1.819 1.106-1.819 2.197v3.943h-1.338v-4.16c0-1.485-.567-1.98-1.586-1.98-1.091 0-1.818 1.106-1.818 2.197v3.943h-1.339V69.19zM0 70.587c0-3.288 2.764-5.965 6.052-5.965 1.82 0 3.114.713 4.089 1.644l-1.15 1.149c-.698-.655-1.644-1.164-2.939-1.164-2.4 0-4.277 1.935-4.277 4.336 0 2.4 1.877 4.335 4.277 4.335 1.557 0 2.445-.625 3.012-1.193.466-.465.771-1.135.888-2.051h-3.9v-1.63h5.485c.059.291.088.64.088 1.019 0 1.222-.335 2.735-1.412 3.812-1.047 1.09-2.386 1.673-4.16 1.673C2.763 76.552 0 73.875 0 70.587zM16.058 75.039c-1.165 0-2.168-.96-2.168-2.328 0-1.382 1.003-2.328 2.168-2.328 1.163 0 2.167.946 2.167 2.328 0 1.368-1.004 2.328-2.168 2.328zm0-6.17c-2.125 0-3.856 1.616-3.856 3.842 0 2.211 1.731 3.84 3.856 3.84 2.124 0 3.855-1.629 3.855-3.84 0-2.226-1.731-3.841-3.855-3.841zM24.468 75.039c-1.164 0-2.168-.96-2.168-2.328 0-1.382 1.004-2.328 2.168-2.328 1.164 0 2.168.946 2.168 2.328 0 1.368-1.004 2.328-2.168 2.328zm0-6.17c-2.124 0-3.855 1.616-3.855 3.842 0 2.211 1.731 3.84 3.855 3.84 2.124 0 3.856-1.629 3.856-3.84 0-2.226-1.732-3.841-3.856-3.841zM32.857 75.039c-1.164 0-2.139-.975-2.139-2.314 0-1.352.975-2.342 2.139-2.342 1.15 0 2.051.99 2.051 2.343 0 1.338-.902 2.313-2.051 2.313zm1.935-5.936v.625h-.058c-.378-.45-1.106-.858-2.023-.858-1.92 0-3.68 1.688-3.68 3.855 0 2.154 1.76 3.827 3.68 3.827.917 0 1.645-.408 2.023-.873h.058v.553c0 1.47-.786 2.255-2.051 2.255-1.033 0-1.674-.742-1.936-1.368l-1.469.611c.422 1.019 1.542 2.27 3.405 2.27 1.978 0 3.651-1.164 3.651-4.001v-6.896h-1.6zM39.244 76.319h-1.688v-11.29h1.688v11.29zM43.74 70.354c.669 0 1.236.335 1.425.815l-3.433 1.425c-.044-1.484 1.15-2.24 2.008-2.24zm.13 4.685c-.858 0-1.469-.393-1.862-1.164l5.136-2.124-.175-.437c-.32-.858-1.294-2.444-3.288-2.444-1.978 0-3.622 1.557-3.622 3.84 0 2.154 1.63 3.842 3.812 3.842 1.76 0 2.779-1.077 3.2-1.702l-1.31-.873c-.436.64-1.032 1.062-1.89 1.062z"/></svg>
